build/svg/cmd/km/lc_underline.svg

<?xml version="1.0" encoding="UTF-8" standalone="no"?>
<svg
   xmlns:dc="http://purl.org/dc/elements/1.1/"
   xmlns:cc="http://creativecommons.org/ns#"
   xmlns:rdf="http://www.w3.org/1999/02/22-rdf-syntax-ns#"
   xmlns:svg="http://www.w3.org/2000/svg"
   xmlns="http://www.w3.org/2000/svg"
   xmlns:sodipodi="http://sodipodi.sourceforge.net/DTD/sodipodi-0.dtd"
   xmlns:inkscape="http://www.inkscape.org/namespaces/inkscape"
   viewBox="0 0 24 24"
   version="1.1"
   id="svg4"
   sodipodi:docname="lc_underline.svg"
   inkscape:export-filename="/home/jupiter007/Libreoffice yaru theme fullcolor/build/cmd/km/lc_underline.png"
   inkscape:export-xdpi="96"
   inkscape:export-ydpi="96"
   inkscape:version="0.92.5 (2060ec1f9f, 2020-04-08)">
  <metadata
     id="metadata10">
    <rdf:RDF>
      <cc:Work
         rdf:about="">
        <dc:format>image/svg+xml</dc:format>
        <dc:type
           rdf:resource="http://purl.org/dc/dcmitype/StillImage" />
      </cc:Work>
    </rdf:RDF>
  </metadata>
  <defs
     id="defs8" />
  <sodipodi:namedview
     pagecolor="#ffffff"
     bordercolor="#666666"
     borderopacity="1"
     objecttolerance="10"
     gridtolerance="10"
     guidetolerance="10"
     inkscape:pageopacity="0"
     inkscape:pageshadow="2"
     inkscape:window-width="1920"
     inkscape:window-height="1011"
     id="namedview6"
     showgrid="true"
     inkscape:zoom="27.812867"
     inkscape:cx="10.122574"
     inkscape:cy="11.123149"
     inkscape:window-x="0"
     inkscape:window-y="32"
     inkscape:window-maximized="1"
     inkscape:current-layer="svg4">
    <inkscape:grid
       type="xygrid"
       id="grid817" />
  </sodipodi:namedview>
  <path
     style="opacity:0.6;fill:#000000;stroke:#000000;stroke-width:2;stroke-linejoin:round;stroke-miterlimit:4;stroke-dasharray:none"
     id="path819"
     d="M 6.6503906,3 5.7050781,4.3066406 5.2402344,4.9609375 C 5.0806184,5.1742708 5,5.386276 5,5.5996094 5,5.8218316 5.087254,6.0453559 5.2636719,6.2675781 L 5.7695312,6.9335938 6.3984375,7.7597656 V 14.693359 C 6.3984375,17.564471 8.4987985,19 12.699219,19 16.899639,19 19,17.564471 19,14.693359 V 7.8007812 L 15.244141,5.5058594 H 19 V 3 h -4.384766 l -0.945312,1.3066406 -0.466797,0.6542969 c -0.134414,0.1777777 -0.201172,0.3582552 -0.201172,0.5449219 0,0.2488889 0.130198,0.503941 0.390625,0.7617187 l 0.654297,0.6660157 1.324219,1.3203124 v 6.4394528 c 0,1.2 -0.890898,1.800782 -2.671875,1.800782 -1.780978,0 -2.671875,-0.600782 -2.671875,-1.800782 V 7.8007812 L 7.28125,5.5058594 h 3.501953 V 3 Z M 5,21 v 1 h 15 v -1 z"
     inkscape:connector-curvature="0"
     sodipodi:nodetypes="cccscccssscccccccscccssscccccccccc" />
  <path
     d="M 6.6503906,3 5.7050781,4.3066406 5.2402344,4.9609375 C 5.0806184,5.1742708 5,5.386276 5,5.5996094 5,5.8218316 5.087254,6.0453559 5.2636719,6.2675781 L 5.7695312,6.9335938 6.3984375,7.7597656 V 14.693359 C 6.3984375,17.564471 8.4987985,19 12.699219,19 16.899639,19 19,17.564471 19,14.693359 V 7.8007812 L 15.244141,5.5058594 H 19 V 3 h -4.384766 l -0.945312,1.3066406 -0.466797,0.6542969 c -0.134414,0.1777777 -0.201172,0.3582552 -0.201172,0.5449219 0,0.2488889 0.130198,0.503941 0.390625,0.7617187 l 0.654297,0.6660157 1.324219,1.3203124 v 6.4394528 c 0,1.2 -0.890898,1.800782 -2.671875,1.800782 -1.780978,0 -2.671875,-0.600782 -2.671875,-1.800782 V 7.8007812 L 7.28125,5.5058594 h 3.501953 V 3 Z M 5,21 v 1 h 15 v -1 z"
     id="path2"
     style="fill:#ffffff"
     inkscape:connector-curvature="0"
     sodipodi:nodetypes="cccscccssscccccccscccssscccccccccc" />
</svg>

<svg xmlns="http://www.w3.org/2000/svg" viewBox="0 0 24 24"><path d="M6.65 3l-.945 1.307-.465.654c-.16.213-.24.425-.24.639 0 .222.087.445.264.668l.506.666.628.826v6.933c0 2.871 2.1 4.307 6.301 4.307C16.9 19 19 17.564 19 14.693V7.801l-3.756-2.295H19V3h-4.385l-.945 1.307-.467.654a.893.893 0 00-.201.545c0 .249.13.504.39.762l.655.666 1.324 1.32v6.44c0 1.2-.89 1.8-2.672 1.8-1.78 0-2.672-.6-2.672-1.8V7.8L7.281 5.506h3.502V3zM5 21v1h15v-1z" opacity=".6" stroke="#000" stroke-width="2" stroke-linejoin="round"/><path d="M6.65 3l-.945 1.307-.465.654c-.16.213-.24.425-.24.639 0 .222.087.445.264.668l.506.666.628.826v6.933c0 2.871 2.1 4.307 6.301 4.307C16.9 19 19 17.564 19 14.693V7.801l-3.756-2.295H19V3h-4.385l-.945 1.307-.467.654a.893.893 0 00-.201.545c0 .249.13.504.39.762l.655.666 1.324 1.32v6.44c0 1.2-.89 1.8-2.672 1.8-1.78 0-2.672-.6-2.672-1.8V7.8L7.281 5.506h3.502V3zM5 21v1h15v-1z" fill="#fff"/></svg>
